X: 41944
T: Walking Nightmare, The
R: reel
M: 4/4
K: Ddorian
cBAB GADD|CDD F2 GAB|cdBc ADDD|c/B/A BG ADDD|
cBAB GADD|CDD F2 GAB|cdBc ADDD|c/B/A BG ADDD:|
c2 AG AEGA|c2 AG AdcB|c2 AG AEGA|c/B/A BG ADDD|
c2 AG AEGA|c2 AG AdcB|c2 AG AEGA|c/B/A BG ADDD:|

